X: 1
T: Timur the Tartar
T: Blanchard Races
R: reel
N: Timpany
N: Kennedy v.1 #17
Z: 1997 by John Chambers <jc:trillian.mit.edu>
M: C|
L: 1/8
K: A
|: "A"A2 ((3cBA) eA ((3cBA) | eA aA gA fA \
|  eA ((3cBA) eA ((3cBA) | "E7"BE dE cE BE |
| "A"A2 ((3cBA) eA ((3cBA) | eA aA gA fA \
| efec eaec | "E7"BABc "A"A2-A2 :|
|: E2 ((3GFE) BE ((3GFE) | BE dE cE BE \
| "A"A2 ((3cBA) eA ((3cBA) | eA aA gA fA |
| "A"efec "D"agaf | "A"efec "D"agaf \
| "A"ecag "D"fedc |1 "E7"BABc "A"A2-"fine"A2 :|2 "E7"BAGF EFGE |]
